X:1
T: Mr. Wilson's Hornpipe
T: 8x32R 3C (RSCDS Book 16)
P: Mr. Wilson's Hornpipe
C: from Barbara McOwen, arr. T. Traub 6-14-04
R: hornpipe
M: 4/4
L: 1/8
%
K: G
|: d2 |"G"gfge decd| Bcdc BcAB|"Em"GFGA "G"BcdB|"A"AGFE "D"D2 d2|"G"gfge decd|
 Bcdc BcAB|"Em"GFGA "D"BcAB|"G"G2 B2 G2 :||: dc|"G"BcAB G3 A|BcAB G3 A|
"G"BcdB "Em"edcB|"A"A^GAB "D"A2 dc|"G"BcAB G3 A|"B"BcAB "Em"G3 A|"C"BcdB "D"AGAB|"G"G2 B2 G2 :|
